X: 1
T: the Faithfull Swain #2   [G] DR 1759
R: reel
B: RUTHERFORD Complete Collection of 200 Country Dances Vol.2; 1759.
Z: vmp.Mike Hicken 2015 www.village-music-project.org.uk
M: 4/4
%Q: 1/4=140
K: G
   c | "G"BGGB "Am"cA"D7"Af | "G"gbag "D7"aAAc | "G"BG"Am"cA "G"dB"C"ge | "G"dg"D7"dc "G"BGG :| 
|: c | "G"BGDG BGdG | "G"BgdB "Am"cA"D7"Ac | "G"Bd"Am"ce "D7"df"C"eg | "D7"fdef "G"gGG :| 
|: f | "G"gdBG DGBd | "C"gefg "D7"aAAf | "G"gfed "Em"edcB | "Am"cA"D7"dc "G"BGG :| 
%%begintext align
%% The first Wo: cast off behind the 2d  her partner
%% follow her and turn in the 2d Cu: place . | the
%% same back round the 2d Man and turn in your own
%% places :| set all 4 and change sides . | .  the
%% same back again :| .  cross over half figure . |: 
%% right and left :| 
%%endtext
